resources/icons/16px/soccer-ball.svg

<svg width="16" height="16" viewBox="0 0 16 16" fill="none" xmlns="http://www.w3.org/2000/svg">
<path fill-rule="evenodd" clip-rule="evenodd" d="M15 7.5C15 11.6421 11.6421 15 7.5 15C3.35786 15 0 11.6421 0 7.5C0 3.35786 3.35786 0 7.5 0C11.6421 0 15 3.35786 15 7.5ZM7.5 13C8.1937 13 8.8574 12.8716 9.46863 12.6372L9.81079 11.5841L8.67949 10.027H6.33827L5.20264 11.5901L5.54449 12.6422C6.15209 12.8734 6.81126 13 7.5 13ZM12.9989 7.61016C12.9737 8.89524 12.5077 10.0723 11.7459 10.9963H10.6198L9.46584 9.40804L9.46405 9.40934L10.1506 7.29633L11.8203 6.75382L12.9989 7.61016ZM3.25907 11.0023H4.39362L5.54059 9.42364L4.85371 7.30963L3.14305 6.7538L2.00063 7.58382C2.02002 8.88192 2.48912 10.071 3.25907 11.0023ZM8 4.96325L9.88347 6.33167L11.5113 5.80277L11.9915 4.32484C11.2944 3.34055 10.2819 2.59542 9.10117 2.2367L8 3.03675V4.96325ZM5.89883 2.23671L7 3.03676V4.96325L5.10522 6.33989L3.45207 5.80275L2.98346 4.36053C3.68124 3.35857 4.7039 2.59975 5.89883 2.23671Z" fill="black"/>
</svg>

<svg xmlns="http://www.w3.org/2000/svg" viewBox="0 0 16 16">
  <path d="M15 7.5a7.5 7.5 0 1 1-15 0 7.5 7.5 0 0 1 15 0M7.5 13c.694 0 1.357-.128 1.969-.363l.342-1.053-1.132-1.557H6.34L5.202 11.59l.341 1.052A5.5 5.5 0 0 0 7.5 13m5.499-5.39a5.48 5.48 0 0 1-1.253 3.386H10.62L9.466 9.408l-.002.001.687-2.113 1.67-.542zm-9.74 3.392h1.135L5.54 9.424 4.854 7.31l-1.711-.556-1.142.83a5.48 5.48 0 0 0 1.258 3.418M8 4.963l1.883 1.369 1.628-.53.48-1.477a5.5 5.5 0 0 0-2.89-2.088L8 3.037zM5.899 2.237l1.101.8v1.926L5.105 6.34l-1.653-.537-.469-1.442A5.5 5.5 0 0 1 5.9 2.237"/>
</svg>
